X: 560
U:~=!turn!
M:6/8
L:1/8
K:A
f | eAA {/d}cAA | eAA Aaf | edc {/d}cBA | GBB B2 f | eAA {/d}cAA |
eAA Tf2 e/d/ | cde efg | aAA A2 :: a | Tagf fcc | {/c}dcB {cB}A2 G |


